X: 22669
T: Lakes Of Kincora, The
R: hornpipe
M: 4/4
K: Cmajor
|:(3EFG|AB (3AGF EA,CE|AGAB ceag|fedc B2AB|cBAG F2 (3EFG|
AB (3AGF EA,CE|AGAB ceag|fedc B2AB|c2A2A2:|
|:cd|e^def ecAE|Acef eaga|fbaf ecAB|cBBA A2 (3EFG|
AB (3AGF EA,CE|AGAB ceag|fecd B2AB|c2A2A2:|

